X:1
T: The Banks of Clyde
C:
R:Strathspey
Q:128
K:G
M:4/4
L:1/16
|:B2|G3B dg3 e4d4|e3g f3a g3e d3B|G3B dg3 e4d4|e3a fd3 g6B2|
G3B dg3 e4d4|e3g f3a g3e d3B|G3B dg3 e4d4|e3a fd3 g6a2|
b3a gb3 a3f d4|e3c Gg3 d3B G4|b3a gb3 a3f d4|e3a fd3 g4 g3a|
b3a gb3 a3f d4|e3c Gg3 d3B A3B|G3B d3g e3f g3a|b3g fa3 g6:|
